( This file was created automatically using CamBam )
( http://www.brusselsprout.org/CAMBAM )
( 8/24/2010 7:00:54 PM )
( T0 : 0.016 )
G20
G90
G64
G00 Z0.1
( MOPProfile_2 )
( T0 : 0.016 )
M06 T0
M03
G00 X0.413 Y1.313
G01 F8 Z-0.002
G01 F12 Y1.422
G01 X0.522
G01 Y1.313
G01 X0.413
G00 Z0.1
G00 X0.278 Y1.268
G01 F8 Z-0.002
G01 F12 Y1.377
G01 X0.387
G01 Y1.268
G01 X0.278
G00 Z0.1
G00 Y1.128
G01 F8 Z-0.002
G01 F12 Y1.237
G01 X0.387
G01 Y1.128
G01 X0.278
G00 Z0.1
G00 Y0.988
G01 F8 Z-0.002
G01 F12 Y1.097
G01 X0.387
G01 Y0.988
G01 X0.278
G00 Z0.1
G00 X0.413 Y1.023
G01 F8 Z-0.002
G01 F12 Y1.132
G01 X0.522
G01 Y1.023
G01 X0.413
G00 Z0.1
G00 Y0.878
G01 F8 Z-0.002
G01 F12 Y0.987
G01 X0.522
G01 Y0.878
G01 X0.413
G00 Z0.1
G00 X0.278 Y0.848
G01 F8 Z-0.002
G01 F12 Y0.957
G01 X0.387
G01 Y0.848
G01 X0.278
G00 Z0.1
G00 X0.143 Y0.818
G01 F8 Z-0.002
G01 F12 Y0.927
G01 X0.252
G01 Y0.818
G01 X0.143
G00 Z0.1
G00 Y0.683
G01 F8 Z-0.002
G01 F12 Y0.792
G01 X0.252
G01 Y0.683
G01 X0.143
G00 Z0.1
G00 Y0.548
G01 F8 Z-0.002
G01 F12 Y0.657
G01 X0.252
G01 Y0.548
G01 X0.143
G00 Z0.1
G00 Y0.413
G01 F8 Z-0.002
G01 F12 Y0.522
G01 X0.252
G01 Y0.413
G01 X0.143
G00 Z0.1
G00 Y0.278
G01 F8 Z-0.002
G01 F12 Y0.387
G01 X0.252
G01 Y0.278
G01 X0.143
G00 Z0.1
G00 Y0.143
G01 F8 Z-0.002
G01 F12 Y0.252
G01 X0.252
G01 Y0.143
G01 X0.143
G00 Z0.1
G00 Y0.008
G01 F8 Z-0.002
G01 F12 Y0.117
G01 X0.252
G01 Y0.008
G01 X0.143
G00 Z0.1
G00 X0.008
G01 F8 Z-0.002
G01 F12 Y0.117
G01 X0.117
G01 Y0.008
G01 X0.008
G00 Z0.1
G00 Y0.138
G01 F8 Z-0.002
G01 F12 Y0.247
G01 X0.117
G01 Y0.138
G01 X0.008
G00 Z0.1
G00 Y0.268
G01 F8 Z-0.002
G01 F12 Y0.377
G01 X0.117
G01 Y0.268
G01 X0.008
G00 Z0.1
G00 Y0.398
G01 F8 Z-0.002
G01 F12 Y0.507
G01 X0.117
G01 Y0.398
G01 X0.008
G00 Z0.1
G00 Y0.528
G01 F8 Z-0.002
G01 F12 Y0.637
G01 X0.117
G01 Y0.528
G01 X0.008
G00 Z0.1
G00 Y0.658
G01 F8 Z-0.002
G01 F12 Y0.767
G01 X0.117
G01 Y0.658
G01 X0.008
G00 Z0.1
G00 Y0.788
G01 F8 Z-0.002
G01 F12 Y0.897
G01 X0.117
G01 Y0.788
G01 X0.008
G00 Z0.1
G00 Y0.918
G01 F8 Z-0.002
G01 F12 Y1.027
G01 X0.117
G01 Y0.918
G01 X0.008
G00 Z0.1
G00 Y1.048
G01 F8 Z-0.002
G01 F12 Y1.157
G01 X0.117
G01 Y1.048
G01 X0.008
G00 Z0.1
G00 Y1.178
G01 F8 Z-0.002
G01 F12 Y1.287
G01 X0.117
G01 Y1.178
G01 X0.008
G00 Z0.1
G00 X0.143 Y1.223
G01 F8 Z-0.002
G01 F12 Y1.332
G01 X0.252
G01 Y1.223
G01 X0.143
G00 Z0.1
G00 Y1.088
G01 F8 Z-0.002
G01 F12 Y1.197
G01 X0.252
G01 Y1.088
G01 X0.143
G00 Z0.1
G00 Y0.953
G01 F8 Z-0.002
G01 F12 Y1.062
G01 X0.252
G01 Y0.953
G01 X0.143
G00 Z0.1
G00 X0.278 Y0.708
G01 F8 Z-0.002
G01 F12 Y0.817
G01 X0.387
G01 Y0.708
G01 X0.278
G00 Z0.1
G00 X0.413 Y0.733
G01 F8 Z-0.002
G01 F12 Y0.842
G01 X0.522
G01 Y0.733
G01 X0.413
G00 Z0.1
G00 Y0.588
G01 F8 Z-0.002
G01 F12 Y0.697
G01 X0.522
G01 Y0.588
G01 X0.413
G00 Z0.1
G00 X0.278 Y0.568
G01 F8 Z-0.002
G01 F12 Y0.677
G01 X0.387
G01 Y0.568
G01 X0.278
G00 Z0.1
G00 Y0.428
G01 F8 Z-0.002
G01 F12 Y0.537
G01 X0.387
G01 Y0.428
G01 X0.278
G00 Z0.1
G00 X0.413 Y0.443
G01 F8 Z-0.002
G01 F12 Y0.552
G01 X0.522
G01 Y0.443
G01 X0.413
G00 Z0.1
G00 Y0.298
G01 F8 Z-0.002
G01 F12 Y0.407
G01 X0.522
G01 Y0.298
G01 X0.413
G00 Z0.1
G00 X0.278 Y0.288
G01 F8 Z-0.002
G01 F12 Y0.397
G01 X0.387
G01 Y0.288
G01 X0.278
G00 Z0.1
G00 Y0.148
G01 F8 Z-0.002
G01 F12 Y0.257
G01 X0.387
G01 Y0.148
G01 X0.278
G00 Z0.1
G00 X0.413 Y0.153
G01 F8 Z-0.002
G01 F12 Y0.262
G01 X0.522
G01 Y0.153
G01 X0.413
G00 Z0.1
G00 Y0.008
G01 F8 Z-0.002
G01 F12 Y0.117
G01 X0.522
G01 Y0.008
G01 X0.413
G00 Z0.1
G00 X0.278
G01 F8 Z-0.002
G01 F12 Y0.117
G01 X0.387
G01 Y0.008
G01 X0.278
G00 Z0.1
G00 X0.413 Y1.168
G01 F8 Z-0.002
G01 F12 Y1.277
G01 X0.522
G01 Y1.168
G01 X0.413
( MOPEngrave_3 )
G00 Z0.1
G00 X0.013757 Y-0.073553
G01 F8 Z-0.002
G01 F12 X0.022112 Y-0.072846
G03 X0.023474 Y-0.077808 I0.019981 J0.002818
G03 X0.026399 Y-0.08204 I0.011373 J0.004733
G03 X0.034577 Y-0.08509 I0.007933 J0.008781
G03 X0.044301 Y-0.080759 I0.000169 J0.012701
G03 X0.047394 Y-0.075394 I-0.010563 J0.009663
G03 X0.04828 Y-0.069266 I-0.019091 J0.005888
G03 X0.047433 Y-0.06351 I-0.018349 J0.000241
G03 X0.044434 Y-0.058525 I-0.012135 J-0.003905
G03 X0.039854 Y-0.055504 I-0.008918 J-0.00854
G03 X0.034444 Y-0.05459 I-0.005211 J-0.014384
G03 X0.027504 Y-0.056359 I-0.000193 J-0.013746
G03 X0.022642 Y-0.060867 I0.006329 J-0.011702
G01 X0.015172 Y-0.059895
G01 X0.021449 Y-0.02661
G01 X0.053672
G01 Y-0.034213
G01 X0.027814
G01 X0.024322 Y-0.051629
G02 X0.030126 Y-0.048638 I0.013527 J-0.019121
G02 X0.036566 Y-0.047562 I0.006431 J-0.018692
G02 X0.044339 Y-0.049011 I0.00021 J-0.020446
G02 X0.050888 Y-0.053441 I-0.007483 J-0.018117
G02 X0.055355 Y-0.060402 I-0.013659 J-0.013681
G02 X0.056722 Y-0.068559 I-0.021973 J-0.007876
G02 X0.05549 Y-0.07661 I-0.025593 J-0.000202
G02 X0.051595 Y-0.083764 I-0.021656 J0.007153
G02 X0.044035 Y-0.089752 I-0.015889 J0.012296
G02 X0.034577 Y-0.091632 I-0.009094 J0.021007
G02 X0.026887 Y-0.090509 I-0.000277 J0.024991
G02 X0.020122 Y-0.086682 I0.005715 J0.017991
G02 X0.015658 Y-0.080739 I0.012139 J0.013768
G02 X0.013757 Y-0.073553 I0.019699 J0.009055
G00 Z0.1
G00 X0.178727 Y-0.090527
G01 F8 Z-0.002
G01 F12 X0.17077
G01 Y-0.039827
G02 X0.163212 Y-0.045308 I-0.0279 J0.030522
G02 X0.154857 Y-0.049419 I-0.027619 J0.045583
G01 Y-0.041727
G03 X0.166527 Y-0.034125 I-0.02015 J0.043684
G03 X0.170465 Y-0.030121 I-0.026768 J0.030267
G03 X0.173599 Y-0.025461 I-0.01776 J0.01533
G01 X0.178727
G01 Y-0.090527
G00 Z0.1
G00 X0.199104 Y-0.058569
G01 F8 Z-0.002
G02 F12 X0.199567 Y-0.049241 I0.086369 J0.000388
G02 X0.201447 Y-0.040092 I0.044247 J-0.004323
G02 X0.204199 Y-0.034182 I0.026764 J-0.008866
G02 X0.208475 Y-0.029262 I0.017078 J-0.010526
G02 X0.21402 Y-0.026328 I0.010239 J-0.012645
G02 X0.220233 Y-0.025461 I0.006006 J-0.020325
G02 X0.229383 Y-0.027583 I0.000406 J-0.019041
G02 X0.235881 Y-0.033638 I-0.008125 J-0.015232
G02 X0.239903 Y-0.043275 I-0.027472 J-0.017125
G02 X0.241081 Y-0.050879 I-0.044887 J-0.010846
G02 X0.241362 Y-0.058569 I-0.095865 J-0.007351
G02 X0.240896 Y-0.067875 I-0.085428 J-0.000383
G02 X0.239019 Y-0.077001 I-0.044636 J0.00442
G02 X0.236274 Y-0.082915 I-0.026227 J0.008584
G02 X0.231991 Y-0.087831 I-0.017166 J0.010629
G02 X0.226448 Y-0.090771 I-0.010135 J0.012414
G02 X0.220233 Y-0.091632 I-0.006 J0.020436
G02 X0.212066 Y-0.090042 I-0.000324 J0.020098
G02 X0.205514 Y-0.084914 I0.006985 J0.015675
G02 X0.202142 Y-0.078885 I0.018545 J0.014331
G02 X0.199714 Y-0.068863 I0.040284 J0.015063
G02 X0.199104 Y-0.058569 I0.079472 J0.009872
G01 X0.207282
G03 X0.20785 Y-0.069424 I0.091062 J-0.000675
G03 X0.208848 Y-0.074801 I0.040041 J0.004647
G03 X0.210995 Y-0.07983 I0.015817 J0.00378
G03 X0.214945 Y-0.083636 I0.011215 J0.007689
G03 X0.220233 Y-0.08509 I0.005203 J0.008573
G03 X0.225513 Y-0.083621 I0.000089 J0.009902
G03 X0.229427 Y-0.079786 I-0.007284 J0.01135
G03 X0.231597 Y-0.074775 I-0.013516 J0.008826
G03 X0.232884 Y-0.06672 I-0.044792 J0.011289
G03 X0.233185 Y-0.058569 I-0.100328 J0.007779
G03 X0.232611 Y-0.047707 I-0.090357 J0.000677
G03 X0.231603 Y-0.042328 I-0.039536 J-0.004624
G03 X0.229427 Y-0.037307 I-0.015531 J-0.003749
G03 X0.225462 Y-0.033485 I-0.011012 J-0.007458
G03 X0.220145 Y-0.032047 I-0.005213 J-0.008726
G03 X0.211393 Y-0.036688 I-0.0002 J-0.010196
G03 X0.209083 Y-0.041839 I0.015028 J-0.009831
G03 X0.207629 Y-0.050144 I0.043309 J-0.011865
G03 X0.207282 Y-0.058569 I0.093126 J-0.008055
G00 Z0.1
G00 X0.313727 Y-0.090527
G01 F8 Z-0.002
G01 F12 X0.30577
G01 Y-0.039827
G02 X0.298212 Y-0.045308 I-0.0279 J0.030522
G02 X0.289857 Y-0.049419 I-0.027619 J0.045583
G01 Y-0.041727
G03 X0.301527 Y-0.034125 I-0.02015 J0.043684
G03 X0.305465 Y-0.030121 I-0.026768 J0.030267
G03 X0.308599 Y-0.025461 I-0.01776 J0.01533
G01 X0.313727
G01 Y-0.090527
G00 Z0.1
G00 X0.334104 Y-0.073553
G01 F8 Z-0.002
G01 F12 X0.342459 Y-0.072846
G03 X0.343821 Y-0.077808 I0.019981 J0.002818
G03 X0.346746 Y-0.08204 I0.011373 J0.004733
G03 X0.354924 Y-0.08509 I0.007933 J0.008781
G03 X0.364648 Y-0.080759 I0.000169 J0.012701
G03 X0.367741 Y-0.075394 I-0.010563 J0.009663
G03 X0.368627 Y-0.069266 I-0.019091 J0.005888
G03 X0.36778 Y-0.06351 I-0.018349 J0.000241
G03 X0.364781 Y-0.058525 I-0.012135 J-0.003905
G03 X0.360201 Y-0.055504 I-0.008918 J-0.00854
G03 X0.354791 Y-0.05459 I-0.005211 J-0.014384
G03 X0.347851 Y-0.056359 I-0.000193 J-0.013746
G03 X0.342989 Y-0.060867 I0.006329 J-0.011702
G01 X0.335519 Y-0.059895
G01 X0.341796 Y-0.02661
G01 X0.374019
G01 Y-0.034213
G01 X0.348161
G01 X0.344669 Y-0.051629
G02 X0.350473 Y-0.048638 I0.013527 J-0.019121
G02 X0.356913 Y-0.047562 I0.006431 J-0.018692
G02 X0.364686 Y-0.049011 I0.00021 J-0.020446
G02 X0.371235 Y-0.053441 I-0.007483 J-0.018117
G02 X0.375702 Y-0.060402 I-0.013659 J-0.013681
G02 X0.377069 Y-0.068559 I-0.021973 J-0.007876
G02 X0.375837 Y-0.07661 I-0.025593 J-0.000202
G02 X0.371942 Y-0.083764 I-0.021656 J0.007153
G02 X0.364382 Y-0.089752 I-0.015889 J0.012296
G02 X0.354924 Y-0.091632 I-0.009094 J0.021007
G02 X0.347234 Y-0.090509 I-0.000277 J0.024991
G02 X0.340469 Y-0.086682 I0.005715 J0.017991
G02 X0.336005 Y-0.080739 I0.012139 J0.013768
G02 X0.334104 Y-0.073553 I0.019699 J0.009055
G00 Z0.1
G00 X0.460573 Y-0.08288
G01 F8 Z-0.002
G01 F12 Y-0.090527
G01 X0.417741
G02 X0.418669 Y-0.085002 I0.014068 J0.000477
G02 X0.423885 Y-0.076382 I0.027534 J-0.010774
G02 X0.428895 Y-0.071257 I0.046815 J-0.040757
G02 X0.434317 Y-0.066569 I0.081746 J-0.089055
G03 X0.441812 Y-0.060089 I-0.107038 J0.131378
G03 X0.44536 Y-0.056626 I-0.057177 J0.062131
G03 X0.448594 Y-0.052867 I-0.028213 J0.02754
G03 X0.451203 Y-0.048362 I-0.018057 J0.013467
G03 X0.452307 Y-0.043275 I-0.012042 J0.005276
G03 X0.448904 Y-0.035318 I-0.010528 J0.000203
G03 X0.444835 Y-0.032796 I-0.007694 J-0.007869
G03 X0.440107 Y-0.032047 I-0.004553 J-0.01344
G03 X0.435157 Y-0.032828 I-0.000193 J-0.01485
G03 X0.430913 Y-0.035495 I0.00368 J-0.010566
G03 X0.428207 Y-0.039918 I0.007954 J-0.007907
G03 X0.427421 Y-0.045043 I0.015672 J-0.005025
G01 X0.419243 Y-0.044203
G02 X0.421036 Y-0.03662 I0.025387 J-0.001999
G02 X0.425564 Y-0.030279 I0.015812 J-0.006504
G02 X0.432479 Y-0.02651 I0.012012 J-0.013812
G02 X0.440284 Y-0.025461 I0.007486 J-0.026127
G02 X0.448174 Y-0.026597 I0.000327 J-0.025681
G02 X0.455048 Y-0.030633 I-0.005314 J-0.016925
G02 X0.460485 Y-0.043451 I-0.011539 J-0.012457
G02 X0.458893 Y-0.051098 I-0.019448 J0.000058
G02 X0.456559 Y-0.055268 I-0.02181 J0.009472
G02 X0.453589 Y-0.059011 I-0.031292 J0.021781
G02 X0.447646 Y-0.064905 I-0.061394 J0.05596
G02 X0.441345 Y-0.070415 I-0.150875 J0.166177
G03 X0.436664 Y-0.07441 I0.205356 J-0.24534
G03 X0.432151 Y-0.078593 I0.049795 J-0.058263
G03 X0.428791 Y-0.08288 I0.018286 J-0.017787
G01 X0.460573
G00 Z0.1
G00 X0.469104 Y-0.058569
G01 F8 Z-0.002
G02 F12 X0.469567 Y-0.049241 I0.086369 J0.000388
G02 X0.471447 Y-0.040092 I0.044247 J-0.004323
G02 X0.474199 Y-0.034182 I0.026764 J-0.008866
G02 X0.478475 Y-0.029262 I0.017078 J-0.010526
G02 X0.48402 Y-0.026328 I0.010239 J-0.012645
G02 X0.490233 Y-0.025461 I0.006006 J-0.020325
G02 X0.499383 Y-0.027583 I0.000406 J-0.019041
G02 X0.505881 Y-0.033638 I-0.008125 J-0.015232
G02 X0.509903 Y-0.043275 I-0.027472 J-0.017125
G02 X0.511081 Y-0.050879 I-0.044887 J-0.010846
G02 X0.511362 Y-0.058569 I-0.095865 J-0.007351
G02 X0.510896 Y-0.067875 I-0.085428 J-0.000383
G02 X0.509019 Y-0.077001 I-0.044636 J0.00442
G02 X0.506274 Y-0.082915 I-0.026227 J0.008584
G02 X0.501991 Y-0.087831 I-0.017166 J0.010629
G02 X0.496448 Y-0.090771 I-0.010135 J0.012414
G02 X0.490233 Y-0.091632 I-0.006 J0.020436
G02 X0.482066 Y-0.090042 I-0.000324 J0.020098
G02 X0.475514 Y-0.084914 I0.006985 J0.015675
G02 X0.472142 Y-0.078885 I0.018545 J0.014331
G02 X0.469714 Y-0.068863 I0.040284 J0.015063
G02 X0.469104 Y-0.058569 I0.079472 J0.009872
G01 X0.477282
G03 X0.47785 Y-0.069424 I0.091062 J-0.000675
G03 X0.478848 Y-0.074801 I0.040041 J0.004647
G03 X0.480995 Y-0.07983 I0.015817 J0.00378
G03 X0.484945 Y-0.083636 I0.011215 J0.007689
G03 X0.490233 Y-0.08509 I0.005203 J0.008573
G03 X0.495513 Y-0.083621 I0.000089 J0.009902
G03 X0.499427 Y-0.079786 I-0.007284 J0.01135
G03 X0.501597 Y-0.074775 I-0.013516 J0.008826
G03 X0.502884 Y-0.06672 I-0.044792 J0.011289
G03 X0.503185 Y-0.058569 I-0.100328 J0.007779
G03 X0.502611 Y-0.047707 I-0.090357 J0.000677
G03 X0.501603 Y-0.042328 I-0.039536 J-0.004624
G03 X0.499427 Y-0.037307 I-0.015531 J-0.003749
G03 X0.495462 Y-0.033485 I-0.011012 J-0.007458
G03 X0.490145 Y-0.032047 I-0.005213 J-0.008726
G03 X0.481393 Y-0.036688 I-0.0002 J-0.010196
G03 X0.479083 Y-0.041839 I0.015028 J-0.009831
G03 X0.477629 Y-0.050144 I0.043309 J-0.011865
G03 X0.477282 Y-0.058569 I0.093126 J-0.008055
G00 Z0.1
M05
M30
