( This file was created automatically using CamBam )
( http://www.brusselsprout.org/CAMBAM )
( 8/22/2010 11:12:16 PM )
( T0 : 0.016 )
G20
G90
G64
G00 Z0.1
( MOPProfile_2 )
( T0 : 0.016 )
M06 T0
M03
G00 X0.528 Y1.598
G01 F8 Z-0.002
G01 F12 Y1.832
G01 X0.762
G01 Y1.598
G01 X0.528
G00 Z0.1
G00 X0.268 Y0.788
G01 F8 Z-0.002
G01 F12 Y1.022
G01 X0.502
G01 Y0.788
G01 X0.268
G00 Z0.1
G00 X0.528 Y1.333
G01 F8 Z-0.002
G01 F12 Y1.567
G01 X0.762
G01 Y1.333
G01 X0.528
G00 Z0.1
G00 X0.268 Y2.088
G01 F8 Z-0.002
G01 F12 Y2.322
G01 X0.502
G01 Y2.088
G01 X0.268
G00 Z0.1
G00 Y1.048
G01 F8 Z-0.002
G01 F12 Y1.282
G01 X0.502
G01 Y1.048
G01 X0.268
G00 Z0.1
G00 Y1.308
G01 F8 Z-0.002
G01 F12 Y1.542
G01 X0.502
G01 Y1.308
G01 X0.268
G00 Z0.1
G00 X0.008 Y1.793
G01 F8 Z-0.002
G01 F12 Y2.027
G01 X0.242
G01 Y1.793
G01 X0.008
G00 Z0.1
G00 X0.788 Y2.438
G01 F8 Z-0.002
G01 F12 Y2.672
G01 X1.022
G01 Y2.438
G01 X0.788
G00 Z0.1
G00 X0.268 Y0.008
G01 F8 Z-0.002
G01 F12 Y0.242
G01 X0.502
G01 Y0.008
G01 X0.268
G00 Z0.1
G00 Y1.828
G01 F8 Z-0.002
G01 F12 Y2.062
G01 X0.502
G01 Y1.828
G01 X0.268
G00 Z0.1
G00 X0.528 Y1.068
G01 F8 Z-0.002
G01 F12 Y1.302
G01 X0.762
G01 Y1.068
G01 X0.528
G00 Z0.1
G00 X0.268 Y0.268
G01 F8 Z-0.002
G01 F12 Y0.502
G01 X0.502
G01 Y0.268
G01 X0.268
G00 Z0.1
G00 X0.788 Y1.898
G01 F8 Z-0.002
G01 F12 Y2.132
G01 X1.022
G01 Y1.898
G01 X0.788
G00 Z0.1
G00 X0.008 Y0.008
G01 F8 Z-0.002
G01 F12 Y0.242
G01 X0.242
G01 Y0.008
G01 X0.008
G00 Z0.1
G00 Y2.303
G01 F8 Z-0.002
G01 F12 Y2.537
G01 X0.242
G01 Y2.303
G01 X0.008
G00 Z0.1
G00 Y0.773
G01 F8 Z-0.002
G01 F12 Y1.007
G01 X0.242
G01 Y0.773
G01 X0.008
G00 Z0.1
G00 X0.788 Y1.088
G01 F8 Z-0.002
G01 F12 Y1.322
G01 X1.022
G01 Y1.088
G01 X0.788
G00 Z0.1
G00 X0.528 Y0.273
G01 F8 Z-0.002
G01 F12 Y0.507
G01 X0.762
G01 Y0.273
G01 X0.528
G00 Z0.1
G00 X0.008 Y2.048
G01 F8 Z-0.002
G01 F12 Y2.282
G01 X0.242
G01 Y2.048
G01 X0.008
G00 Z0.1
G00 Y1.028
G01 F8 Z-0.002
G01 F12 Y1.262
G01 X0.242
G01 Y1.028
G01 X0.008
G00 Z0.1
G00 X0.268 Y0.528
G01 F8 Z-0.002
G01 F12 Y0.762
G01 X0.502
G01 Y0.528
G01 X0.268
G00 Z0.1
G00 X0.528 Y2.128
G01 F8 Z-0.002
G01 F12 Y2.362
G01 X0.762
G01 Y2.128
G01 X0.528
G00 Z0.1
G00 Y2.393
G01 F8 Z-0.002
G01 F12 Y2.627
G01 X0.762
G01 Y2.393
G01 X0.528
G00 Z0.1
G00 Y0.008
G01 F8 Z-0.002
G01 F12 Y0.242
G01 X0.762
G01 Y0.008
G01 X0.528
G00 Z0.1
G00 X0.788 Y0.548
G01 F8 Z-0.002
G01 F12 Y0.782
G01 X1.022
G01 Y0.548
G01 X0.788
G00 Z0.1
G00 X0.008 Y0.263
G01 F8 Z-0.002
G01 F12 Y0.497
G01 X0.242
G01 Y0.263
G01 X0.008
G00 Z0.1
G00 X0.788 Y2.168
G01 F8 Z-0.002
G01 F12 Y2.402
G01 X1.022
G01 Y2.168
G01 X0.788
G00 Z0.1
G00 X0.528 Y1.863
G01 F8 Z-0.002
G01 F12 Y2.097
G01 X0.762
G01 Y1.863
G01 X0.528
G00 Z0.1
G00 X0.788 Y0.818
G01 F8 Z-0.002
G01 F12 Y1.052
G01 X1.022
G01 Y0.818
G01 X0.788
G00 Z0.1
G00 X0.268 Y1.568
G01 F8 Z-0.002
G01 F12 Y1.802
G01 X0.502
G01 Y1.568
G01 X0.268
G00 Z0.1
G00 X0.008 Y1.538
G01 F8 Z-0.002
G01 F12 Y1.772
G01 X0.242
G01 Y1.538
G01 X0.008
G00 Z0.1
G00 X0.528 Y0.803
G01 F8 Z-0.002
G01 F12 Y1.037
G01 X0.762
G01 Y0.803
G01 X0.528
G00 Z0.1
G00 X0.788 Y1.628
G01 F8 Z-0.002
G01 F12 Y1.862
G01 X1.022
G01 Y1.628
G01 X0.788
G00 Z0.1
G00 X0.268 Y2.348
G01 F8 Z-0.002
G01 F12 Y2.582
G01 X0.502
G01 Y2.348
G01 X0.268
G00 Z0.1
G00 X0.528 Y0.538
G01 F8 Z-0.002
G01 F12 Y0.772
G01 X0.762
G01 Y0.538
G01 X0.528
G00 Z0.1
G00 X0.788 Y0.278
G01 F8 Z-0.002
G01 F12 Y0.512
G01 X1.022
G01 Y0.278
G01 X0.788
G00 Z0.1
G00 X0.008 Y0.518
G01 F8 Z-0.002
G01 F12 Y0.752
G01 X0.242
G01 Y0.518
G01 X0.008
G00 Z0.1
G00 X0.788 Y0.008
G01 F8 Z-0.002
G01 F12 Y0.242
G01 X1.022
G01 Y0.008
G01 X0.788
G00 Z0.1
G00 X0.008 Y1.283
G01 F8 Z-0.002
G01 F12 Y1.517
G01 X0.242
G01 Y1.283
G01 X0.008
G00 Z0.1
G00 X0.788 Y1.358
G01 F8 Z-0.002
G01 F12 Y1.592
G01 X1.022
G01 Y1.358
G01 X0.788
( MOPEngrave_3 )
G00 Z0.1
G00 X0.055636 Y-0.11033
G01 F8 Z-0.002
G01 F12 X0.068167 Y-0.109269
G03 X0.070211 Y-0.116712 I0.029971 J0.004227
G03 X0.074599 Y-0.123061 I0.017059 J0.0071
G03 X0.086865 Y-0.127636 I0.011899 J0.013172
G03 X0.101452 Y-0.121138 I0.000254 J0.019052
G03 X0.106091 Y-0.113091 I-0.015845 J0.014494
G03 X0.107419 Y-0.103899 I-0.028637 J0.008832
G03 X0.106149 Y-0.095265 I-0.027524 J0.000361
G03 X0.101651 Y-0.087787 I-0.018202 J-0.005857
G03 X0.094781 Y-0.083256 I-0.013377 J-0.012809
G03 X0.086666 Y-0.081886 I-0.007816 J-0.021577
G03 X0.076256 Y-0.084538 I-0.000289 J-0.020619
G03 X0.068963 Y-0.091301 I0.009494 J-0.017553
G01 X0.057758 Y-0.089842
G01 X0.067173 Y-0.039915
G01 X0.115509
G01 Y-0.051319
G01 X0.076721
G01 X0.071483 Y-0.077443
G02 X0.080189 Y-0.072957 I0.020291 J-0.028682
G02 X0.089849 Y-0.071343 I0.009647 J-0.028037
G02 X0.101508 Y-0.073517 I0.000315 J-0.03067
G02 X0.111331 Y-0.080162 I-0.011224 J-0.027176
G02 X0.118033 Y-0.090602 I-0.020489 J-0.020522
G02 X0.120084 Y-0.102838 I-0.032959 J-0.011814
G02 X0.118235 Y-0.114915 I-0.038389 J-0.000304
G02 X0.112392 Y-0.125646 I-0.032484 J0.01073
G02 X0.101053 Y-0.134627 I-0.023834 J0.018445
G02 X0.086865 Y-0.137449 I-0.01364 J0.03151
G02 X0.07533 Y-0.135764 I-0.000415 J0.037486
G02 X0.065184 Y-0.130023 I0.008572 J0.026986
G02 X0.058487 Y-0.121109 I0.018208 J0.020652
G02 X0.055636 Y-0.11033 I0.029549 J0.013582
G00 Z0.1
G00 X0.36059 Y-0.135791
G01 F8 Z-0.002
G01 F12 X0.348655
G01 Y-0.05974
G02 X0.337317 Y-0.067962 I-0.041849 J0.045783
G02 X0.324786 Y-0.074128 I-0.041428 J0.068375
G01 Y-0.062591
G03 X0.34229 Y-0.051187 I-0.030224 J0.065526
G03 X0.348197 Y-0.045181 I-0.040152 J0.0454
G03 X0.352899 Y-0.038191 I-0.02664 J0.022995
G01 X0.36059
G01 Y-0.135791
G00 Z0.1
G00 X0.391156 Y-0.087853
G01 F8 Z-0.002
G02 F12 X0.391851 Y-0.073861 I0.129553 J0.000582
G02 X0.39467 Y-0.060138 I0.06637 J-0.006485
G02 X0.398798 Y-0.051273 I0.040145 J-0.013299
G02 X0.405213 Y-0.043893 I0.025617 J-0.015789
G02 X0.41353 Y-0.039493 I0.015359 J-0.018968
G02 X0.42285 Y-0.038191 I0.009008 J-0.030488
G02 X0.436575 Y-0.041374 I0.000608 J-0.028562
G02 X0.446321 Y-0.050458 I-0.012187 J-0.022848
G02 X0.452355 Y-0.064912 I-0.041207 J-0.025688
G02 X0.454122 Y-0.076318 I-0.067331 J-0.01627
G02 X0.454543 Y-0.087853 I-0.143797 J-0.011026
G02 X0.453844 Y-0.101812 I-0.128142 J-0.000574
G02 X0.451029 Y-0.115502 I-0.066954 J0.006631
G02 X0.44691 Y-0.124372 I-0.03934 J0.012876
G02 X0.440487 Y-0.131746 I-0.025748 J0.015944
G02 X0.432172 Y-0.136156 I-0.015203 J0.018621
G02 X0.42285 Y-0.137449 I-0.009 J0.030654
G02 X0.410599 Y-0.135063 I-0.000486 J0.030147
G02 X0.40077 Y-0.12737 I0.010477 J0.023512
G02 X0.395713 Y-0.118328 I0.027817 J0.021496
G02 X0.392071 Y-0.103294 I0.060426 J0.022595
G02 X0.391156 Y-0.087853 I0.119208 J0.014809
G01 X0.403423
G03 X0.404275 Y-0.104137 I0.136593 J-0.001013
G03 X0.405771 Y-0.112202 I0.060061 J0.006971
G03 X0.408992 Y-0.119745 I0.023726 J0.00567
G03 X0.414917 Y-0.125453 I0.016823 J0.011534
G03 X0.42285 Y-0.127636 I0.007804 J0.012859
G03 X0.430769 Y-0.125432 I0.000133 J0.014853
G03 X0.436641 Y-0.119679 I-0.010926 J0.017025
G03 X0.439895 Y-0.112162 I-0.020274 J0.01324
G03 X0.441826 Y-0.10008 I-0.067188 J0.016933
G03 X0.442277 Y-0.087853 I-0.150493 J0.011668
G03 X0.441417 Y-0.071561 I-0.135535 J0.001016
G03 X0.439905 Y-0.063493 I-0.059304 J-0.006937
G03 X0.436641 Y-0.055961 I-0.023296 J-0.005623
G03 X0.430692 Y-0.050228 I-0.016519 J-0.011187
G03 X0.422717 Y-0.048071 I-0.00782 J-0.013089
G03 X0.409589 Y-0.055032 I-0.0003 J-0.015294
G03 X0.406125 Y-0.062758 I0.022543 J-0.014747
G03 X0.403943 Y-0.075216 I0.064963 J-0.017798
G03 X0.403423 Y-0.087853 I0.139688 J-0.012082
G00 Z0.1
G00 X0.62059 Y-0.135791
G01 F8 Z-0.002
G01 F12 X0.608655
G01 Y-0.05974
G02 X0.597317 Y-0.067962 I-0.041849 J0.045783
G02 X0.584786 Y-0.074128 I-0.041428 J0.068375
G01 Y-0.062591
G03 X0.60229 Y-0.051187 I-0.030224 J0.065526
G03 X0.608197 Y-0.045181 I-0.040152 J0.0454
G03 X0.612899 Y-0.038191 I-0.02664 J0.022995
G01 X0.62059
G01 Y-0.135791
G00 Z0.1
G00 X0.651156 Y-0.11033
G01 F8 Z-0.002
G01 F12 X0.663688 Y-0.109269
G03 X0.665731 Y-0.116712 I0.029971 J0.004227
G03 X0.670119 Y-0.123061 I0.017059 J0.0071
G03 X0.682386 Y-0.127636 I0.011899 J0.013172
G03 X0.696973 Y-0.121138 I0.000254 J0.019052
G03 X0.701611 Y-0.113091 I-0.015845 J0.014494
G03 X0.70294 Y-0.103899 I-0.028637 J0.008832
G03 X0.70167 Y-0.095265 I-0.027524 J0.000361
G03 X0.697171 Y-0.087787 I-0.018202 J-0.005857
G03 X0.690301 Y-0.083256 I-0.013377 J-0.012809
G03 X0.682187 Y-0.081886 I-0.007816 J-0.021577
G03 X0.671777 Y-0.084538 I-0.000289 J-0.020619
G03 X0.664483 Y-0.091301 I0.009494 J-0.017553
G01 X0.653278 Y-0.089842
G01 X0.662693 Y-0.039915
G01 X0.711029
G01 Y-0.051319
G01 X0.672241
G01 X0.667003 Y-0.077443
G02 X0.675709 Y-0.072957 I0.020291 J-0.028682
G02 X0.685369 Y-0.071343 I0.009647 J-0.028037
G02 X0.697028 Y-0.073517 I0.000315 J-0.03067
G02 X0.706852 Y-0.080162 I-0.011224 J-0.027176
G02 X0.713553 Y-0.090602 I-0.020489 J-0.020522
G02 X0.715604 Y-0.102838 I-0.032959 J-0.011814
G02 X0.713755 Y-0.114915 I-0.038389 J-0.000304
G02 X0.707913 Y-0.125646 I-0.032484 J0.01073
G02 X0.696573 Y-0.134627 I-0.023834 J0.018445
G02 X0.682386 Y-0.137449 I-0.01364 J0.03151
G02 X0.67085 Y-0.135764 I-0.000415 J0.037486
G02 X0.660704 Y-0.130023 I0.008572 J0.026986
G02 X0.654007 Y-0.121109 I0.018208 J0.020652
G02 X0.651156 Y-0.11033 I0.029549 J0.013582
G00 Z0.1
G00 X0.89836 Y-0.12432
G01 F8 Z-0.002
G01 F12 Y-0.135791
G01 X0.834111
G02 X0.835503 Y-0.127503 I0.021102 J0.000716
G02 X0.843327 Y-0.114574 I0.041301 J-0.01616
G02 X0.850843 Y-0.106886 I0.070222 J-0.061135
G02 X0.858975 Y-0.099854 I0.122619 J-0.133583
G03 X0.870218 Y-0.090134 I-0.160558 J0.197067
G03 X0.875541 Y-0.084939 I-0.085766 J0.093197
G03 X0.880391 Y-0.0793 I-0.042319 J0.04131
G03 X0.884305 Y-0.072543 I-0.027086 J0.020201
G03 X0.885961 Y-0.064912 I-0.018063 J0.007914
G03 X0.880855 Y-0.052977 I-0.015792 J0.000304
G03 X0.874753 Y-0.049194 I-0.011541 J-0.011804
G03 X0.867661 Y-0.048071 I-0.006829 J-0.020159
G03 X0.860235 Y-0.049243 I-0.000289 J-0.022275
G03 X0.85387 Y-0.053242 I0.005519 J-0.01585
G03 X0.84981 Y-0.059876 I0.011932 J-0.011861
G03 X0.848631 Y-0.067564 I0.023509 J-0.007538
G01 X0.836365 Y-0.066304
G02 X0.839055 Y-0.05493 I0.038081 J-0.002999
G02 X0.845847 Y-0.045418 I0.023717 J-0.009755
G02 X0.856219 Y-0.039765 I0.018019 J-0.020719
G02 X0.867926 Y-0.038191 I0.011229 J-0.03919
G02 X0.87976 Y-0.039896 I0.000491 J-0.038522
G02 X0.890072 Y-0.045949 I-0.00797 J-0.025387
G02 X0.898227 Y-0.065177 I-0.017309 J-0.018685
G02 X0.89584 Y-0.076648 I-0.029172 J0.000087
G02 X0.892339 Y-0.082902 I-0.032715 J0.014208
G02 X0.887884 Y-0.088516 I-0.046937 J0.032671
G02 X0.878969 Y-0.097358 I-0.092092 J0.083939
G02 X0.869517 Y-0.105623 I-0.226312 J0.249265
G03 X0.862496 Y-0.111615 I0.308034 J-0.36801
G03 X0.855726 Y-0.117889 I0.074693 J-0.087394
G03 X0.850687 Y-0.12432 I0.027429 J-0.026681
G01 X0.89836
G00 Z0.1
G00 X0.911156 Y-0.087853
G01 F8 Z-0.002
G02 F12 X0.911851 Y-0.073861 I0.129553 J0.000582
G02 X0.91467 Y-0.060138 I0.06637 J-0.006485
G02 X0.918798 Y-0.051273 I0.040145 J-0.013299
G02 X0.925213 Y-0.043893 I0.025617 J-0.015789
G02 X0.93353 Y-0.039493 I0.015359 J-0.018968
G02 X0.94285 Y-0.038191 I0.009008 J-0.030488
G02 X0.956575 Y-0.041374 I0.000608 J-0.028562
G02 X0.966321 Y-0.050458 I-0.012187 J-0.022848
G02 X0.972355 Y-0.064912 I-0.041207 J-0.025688
G02 X0.974122 Y-0.076318 I-0.067331 J-0.01627
G02 X0.974543 Y-0.087853 I-0.143797 J-0.011026
G02 X0.973844 Y-0.101812 I-0.128142 J-0.000574
G02 X0.971029 Y-0.115502 I-0.066954 J0.006631
G02 X0.96691 Y-0.124372 I-0.03934 J0.012876
G02 X0.960487 Y-0.131746 I-0.025748 J0.015944
G02 X0.952172 Y-0.136156 I-0.015203 J0.018621
G02 X0.94285 Y-0.137449 I-0.009 J0.030654
G02 X0.930599 Y-0.135063 I-0.000486 J0.030147
G02 X0.92077 Y-0.12737 I0.010477 J0.023512
G02 X0.915713 Y-0.118328 I0.027817 J0.021496
G02 X0.912071 Y-0.103294 I0.060426 J0.022595
G02 X0.911156 Y-0.087853 I0.119208 J0.014809
G01 X0.923423
G03 X0.924275 Y-0.104137 I0.136593 J-0.001013
G03 X0.925771 Y-0.112202 I0.060061 J0.006971
G03 X0.928992 Y-0.119745 I0.023726 J0.00567
G03 X0.934917 Y-0.125453 I0.016823 J0.011534
G03 X0.94285 Y-0.127636 I0.007804 J0.012859
G03 X0.950769 Y-0.125432 I0.000133 J0.014853
G03 X0.956641 Y-0.119679 I-0.010926 J0.017025
G03 X0.959895 Y-0.112162 I-0.020274 J0.01324
G03 X0.961826 Y-0.10008 I-0.067188 J0.016933
G03 X0.962277 Y-0.087853 I-0.150493 J0.011668
G03 X0.961417 Y-0.071561 I-0.135535 J0.001016
G03 X0.959905 Y-0.063493 I-0.059304 J-0.006937
G03 X0.956641 Y-0.055961 I-0.023296 J-0.005623
G03 X0.950692 Y-0.050228 I-0.016519 J-0.011187
G03 X0.942717 Y-0.048071 I-0.00782 J-0.013089
G03 X0.929589 Y-0.055032 I-0.0003 J-0.015294
G03 X0.926125 Y-0.062758 I0.022543 J-0.014747
G03 X0.923943 Y-0.075216 I0.064963 J-0.017798
G03 X0.923423 Y-0.087853 I0.139688 J-0.012082
G00 Z0.1
M05
M30
