(.../kin/mg/eagle/ulp/pcb-gcode.ulp)
(Copyright 2005 - 2009 by John Johnson)
(See readme.txt for licensing terms.)
(This file generated from the board:)
(.../Variac-Controller/variac-controller.brd)
(Current profile is .../eagle/ulp/profiles/generic.pp  )
(This file generated 8/14/2010 12:43:46 PM)
(Settings from pcb-defaults.h)
(Default isolate = 0.0020)
(isolate max = 0.0250)
(isolate step = 0.0120)
(Generated bottom outlines, bottom drill, )
(Unit of measure: inch)
( Tool|       Size       |  Min Sub |  Max Sub |   Count )
( T01  0.813mm 0.0320in 0.0000in 0.0000in )
( T02  1.000mm 0.0394in 0.0000in 0.0000in )
( T03  1.016mm 0.0400in 0.0000in 0.0000in )
( T04  1.321mm 0.0520in 0.0000in 0.0000in )
( T05  2.800mm 0.1102in 0.0000in 0.0000in )
(Inch Mode)
G20
(Absolute Coordinates)
G90
M05
G00 Z0.0000 
G00 X0.0000 Y0.0000 
M06 T01  ; 0.0320 
G00 Z0.1000 
M03
G04 P1.000000
G00 X-0.6000 Y0.8500 
G01 Z-0.0700 F8.00  
G00 Z0.1000 
G00 X-0.6000 Y1.2500 
G01 Z-0.0700 F8.00  
G00 Z0.1000 
G00 X-0.6000 Y1.3000 
G01 Z-0.0700 F8.00  
G00 Z0.1000 
G00 X-0.6000 Y1.7000 
G01 Z-0.0700 F8.00  
G00 Z0.1000 
G00 X-0.8000 Y0.6500 
G01 Z-0.0700 F8.00  
G00 Z0.1000 
G00 X-0.8000 Y0.7500 
G01 Z-0.0700 F8.00  
G00 Z0.1000 
G00 X-0.8000 Y0.8500 
G01 Z-0.0700 F8.00  
G00 Z0.1000 
G00 X-0.8000 Y1.5000 
G01 Z-0.0700 F8.00  
G00 Z0.1000 
G00 X-0.8000 Y1.6000 
G01 Z-0.0700 F8.00  
G00 Z0.1000 
G00 X-0.8000 Y1.7000 
G01 Z-0.0700 F8.00  
G00 Z0.1000 
G00 X-1.1000 Y0.3000 
G01 Z-0.0700 F8.00  
G00 Z0.1000 
G00 X-1.1000 Y0.6500 
G01 Z-0.0700 F8.00  
G00 Z0.1000 
G00 X-1.1000 Y0.7500 
G01 Z-0.0700 F8.00  
G00 Z0.1000 
G00 X-1.1000 Y0.8500 
G01 Z-0.0700 F8.00  
G00 Z0.1000 
G00 X-1.1000 Y1.1500 
G01 Z-0.0700 F8.00  
G00 Z0.1000 
G00 X-1.1000 Y1.5000 
G01 Z-0.0700 F8.00  
G00 Z0.1000 
G00 X-1.1000 Y1.6000 
G01 Z-0.0700 F8.00  
G00 Z0.1000 
G00 X-1.1000 Y1.7000 
G01 Z-0.0700 F8.00  
G00 Z0.1000 
G00 X-1.3500 Y0.4500 
G01 Z-0.0700 F8.00  
G00 Z0.1000 
G00 X-1.3500 Y0.8500 
G01 Z-0.0700 F8.00  
G00 Z0.1000 
G00 X-1.3500 Y1.3000 
G01 Z-0.0700 F8.00  
G00 Z0.1000 
G00 X-1.3500 Y1.7000 
G01 Z-0.0700 F8.00  
G00 Z0.1000 
G00 X-1.5000 Y0.3000 
G01 Z-0.0700 F8.00  
G00 Z0.1000 
G00 X-1.5000 Y1.1500 
G01 Z-0.0700 F8.00  
G00 Z0.1000 
G00 X-1.6500 Y0.3000 
G01 Z-0.0700 F8.00  
G00 Z0.1000 
G00 X-1.6500 Y1.1500 
G01 Z-0.0700 F8.00  
G00 Z0.1000 
G00 X-1.8500 Y0.3000 
G01 Z-0.0700 F8.00  
G00 Z0.1000 
G00 X-1.8500 Y1.1500 
G01 Z-0.0700 F8.00  
G00 Z0.1000 
G00 X-2.0000 Y0.4000 
G01 Z-0.0700 F8.00  
G00 Z0.1000 
G00 X-2.0000 Y0.8000 
G01 Z-0.0700 F8.00  
G00 Z0.1000 
G00 X-2.0000 Y1.2500 
G01 Z-0.0700 F8.00  
G00 Z0.1000 
G00 X-2.0000 Y1.6500 
G01 Z-0.0700 F8.00  
G00 Z0.1000 
M05
G00 Z0.0000 
G00 X0.0000 Y0.0000 
M06 T02  ; 0.0394 
G00 Z0.1000 
M03
G04 P1.000000
G00 X-0.2000 Y0.9500 
G01 Z-0.0700 F8.00  
G00 Z0.1000 
G00 X-0.2000 Y1.0500 
G01 Z-0.0700 F8.00  
G00 Z0.1000 
G00 X-0.2000 Y1.1500 
G01 Z-0.0700 F8.00  
G00 Z0.1000 
G00 X-0.2000 Y1.2500 
G01 Z-0.0700 F8.00  
G00 Z0.1000 
M05
G00 Z0.0000 
G00 X0.0000 Y0.0000 
M06 T03  ; 0.0400 
G00 Z0.1000 
M03
G04 P1.000000
G00 X-1.7000 Y0.6000 
G01 Z-0.0700 F8.00  
G00 Z0.1000 
G00 X-1.7000 Y0.7000 
G01 Z-0.0700 F8.00  
G00 Z0.1000 
G00 X-1.7000 Y0.8000 
G01 Z-0.0700 F8.00  
G00 Z0.1000 
G00 X-1.7000 Y1.4500 
G01 Z-0.0700 F8.00  
G00 Z0.1000 
G00 X-1.7000 Y1.5500 
G01 Z-0.0700 F8.00  
G00 Z0.1000 
G00 X-1.7000 Y1.6500 
G01 Z-0.0700 F8.00  
G00 Z0.1000 
M05
G00 Z0.0000 
G00 X0.0000 Y0.0000 
M06 T04  ; 0.0520 
G00 Z0.1000 
M03
G04 P1.000000
G00 X-2.5000 Y0.5530 
G01 Z-0.0700 F8.00  
G00 Z0.1000 
G00 X-2.5000 Y0.7500 
G01 Z-0.0700 F8.00  
G00 Z0.1000 
G00 X-2.5000 Y0.9470 
G01 Z-0.0700 F8.00  
G00 Z0.1000 
G00 X-2.5000 Y1.2510 
G01 Z-0.0700 F8.00  
G00 Z0.1000 
G00 X-2.5000 Y1.4480 
G01 Z-0.0700 F8.00  
G00 Z0.1000 
M05
G00 Z0.0000 
G00 X0.0000 Y0.0000 
M06 T05  ; 0.1102 
G00 Z0.1000 
M03
G04 P1.000000
G00 X-0.2000 Y0.2000 
G01 Z-0.0700 F8.00  
G00 Z0.1000 
G00 X-0.2000 Y1.8000 
G01 Z-0.0700 F8.00  
G00 Z0.1000 
G00 X-2.8000 Y0.2000 
G01 Z-0.0700 F8.00  
G00 Z0.1000 
G00 X-2.8000 Y1.8000 
G01 Z-0.0700 F8.00  
G00 Z0.1000 
T01 
G00 Z0.2000 
M05
M02
