( This file was created automatically using CamBam )
( http://www.brusselsprout.org/CAMBAM )
( 9/6/2009 1:45:29 PM )
( T0 : 0.0625 )
G20
G90
G00 Z0.05

M03
G00 X-0.858001 Y-0.284424
G01 F1 Z-0.005
G01 F5 X-1.429479
G01 Y0.480679
G01 X-0.875745
G01 Y0.389869
G01 X-1.328231
G01 Y0.156058
G01 X-0.904972
G01 Y0.065248
G01 X-1.328231
G01 Y-0.193614
G01 X-0.858001
G01 Y-0.284424
G00 Z0.05
G00 X0.020876
G01 F1 Z-0.005
G01 F5 X-0.073066
G01 Y0.065248
G03 X-0.078285 Y0.131007 I-0.359266 J0.004573
G03 X-0.105423 Y0.179544 I-0.087091 J-0.016841
G03 X-0.137008 Y0.196779 I-0.047804 J-0.050045
G03 X-0.172748 Y0.200942 I-0.033842 J-0.135066
G03 X-0.268256 Y0.162321 I-0.001735 J-0.133112
G03 X-0.300752 Y0.103673 I0.088377 J-0.087296
G03 X-0.308442 Y0.037066 I0.252945 J-0.06295
G01 Y-0.284424
G01 X-0.402384
G01 Y0.075686
G03 X-0.4067 Y0.127201 I-0.272371 J0.003116
G03 X-0.414042 Y0.152245 I-0.128918 J-0.024198
G03 X-0.427957 Y0.174325 I-0.066163 J-0.026271
G03 X-0.460894 Y0.195189 I-0.057684 J-0.054632
G03 X-0.499457 Y0.200942 I-0.036802 J-0.114573
G03 X-0.553815 Y0.190849 I-0.001733 J-0.142095
G03 X-0.599139 Y0.15919 I0.049354 J-0.118931
G03 X-0.620332 Y0.123964 I0.084226 J-0.074661
G03 X-0.634391 Y0.064324 I0.231047 J-0.085944
G03 X-0.63776 Y0.003142 I0.504343 J-0.058451
G01 Y-0.284424
G01 X-0.731701
G01 Y0.26931
G01 X-0.647154
G01 Y0.192069
G01 X-0.645066
G02 X-0.574749 Y0.259812 I0.16134 J-0.097107
G02 X-0.479625 Y0.281836 I0.091058 J-0.176851
G02 X-0.427806 Y0.276583 I0.001938 J-0.239115
G02 X-0.37942 Y0.257307 I-0.031734 J-0.150018
G02 X-0.322011 Y0.184763 I-0.07175 J-0.115768
G02 X-0.250009 Y0.256731 I0.182443 J-0.110527
G02 X-0.15135 Y0.281836 I0.095232 J-0.167838
G02 X-0.081989 Y0.27223 I0.003471 J-0.230169
G02 X-0.022442 Y0.235387 I-0.03871 J-0.129106
G02 X0.012234 Y0.16976 I-0.113455 J-0.101921
G02 X0.020876 Y0.09604 I-0.278504 J-0.070014
G01 Y-0.284424
G00 Z0.05
G00 X0.911234
G01 F1 Z-0.005
G01 F5 X0.817293
G01 Y0.065248
G03 X0.812074 Y0.131007 I-0.359266 J0.004573
G03 X0.784935 Y0.179544 I-0.087091 J-0.016841
G03 X0.75335 Y0.196779 I-0.047804 J-0.050045
G03 X0.71761 Y0.200942 I-0.033842 J-0.135066
G03 X0.622103 Y0.162321 I-0.001735 J-0.133112
G03 X0.589606 Y0.103673 I0.088377 J-0.087296
G03 X0.581917 Y0.037066 I0.252945 J-0.06295
G01 Y-0.284424
G01 X0.487975
G01 Y0.075686
G03 X0.483658 Y0.127201 I-0.272371 J0.003116
G03 X0.476316 Y0.152245 I-0.128918 J-0.024198
G03 X0.462402 Y0.174325 I-0.066163 J-0.026271
G03 X0.429465 Y0.195189 I-0.057684 J-0.054632
G03 X0.390902 Y0.200942 I-0.036802 J-0.114573
G03 X0.336544 Y0.190849 I-0.001733 J-0.142095
G03 X0.291219 Y0.15919 I0.049354 J-0.118931
G03 X0.270027 Y0.123964 I0.084226 J-0.074661
G03 X0.255967 Y0.064324 I0.231047 J-0.085944
G03 X0.252599 Y0.003142 I0.504343 J-0.058451
G01 Y-0.284424
G01 X0.158657
G01 Y0.26931
G01 X0.243205
G01 Y0.192069
G01 X0.245292
G02 X0.31561 Y0.259812 I0.16134 J-0.097107
G02 X0.410734 Y0.281836 I0.091058 J-0.176851
G02 X0.462553 Y0.276583 I0.001938 J-0.239115
G02 X0.510938 Y0.257307 I-0.031734 J-0.150018
G02 X0.568347 Y0.184763 I-0.07175 J-0.115768
G02 X0.64035 Y0.256731 I0.182443 J-0.110527
G02 X0.739008 Y0.281836 I0.095232 J-0.167838
G02 X0.80837 Y0.27223 I0.003471 J-0.230169
G02 X0.867917 Y0.235387 I-0.03871 J-0.129106
G02 X0.902593 Y0.16976 I-0.113455 J-0.101921
G02 X0.911234 Y0.09604 I-0.278504 J-0.070014
G01 Y-0.284424
G00 Z0.05
G00 X1.505677 Y0.26931
G01 F1 Z-0.005
G01 F5 X1.293786 Y-0.293818
G03 X1.292742 Y-0.297471 I0.016213 J-0.006608
G02 X1.262756 Y-0.376231 I-0.71928 J0.228763
G02 X1.221764 Y-0.449866 I-0.42235 J0.186893
G02 X1.106946 Y-0.50884 I-0.109337 J0.071613
G02 X1.045884 Y-0.498402 I0.007974 J0.230472
G01 X1.03649 Y-0.409679
G03 X1.089724 Y-0.41803 I0.054293 J0.172258
G03 X1.129257 Y-0.412516 I0.002382 J0.127395
G03 X1.161746 Y-0.389325 I-0.017635 J0.05906
G03 X1.187607 Y-0.338778 I-0.229951 J0.14954
G03 X1.207151 Y-0.285468 I-0.78918 J0.31955
G01 X0.996826 Y0.26931
G01 X1.098074
G01 X1.228549 Y-0.093409
G02 X1.253078 Y-0.179522 I-1.016796 J-0.336183
G01 X1.255165
G02 X1.288567 Y-0.064183 I0.819379 J-0.17478
G01 X1.410169 Y0.26931
G01 X1.505677
G00 Z0.05
M05
M30
